!!!SOCIAL_FUNCTION:	songs of social dance
!!!PDT:	1936
!!!OTL: No_56_Song_of_Chief_Dance.krn
!!!REG: Oklahoma and Montana
!!!LANG: Tone
!!!LING_GROUP: Algonquin
**kern	**kern
*staff2	*staff1
=1-	=1-
*clefF4	*clefF4
*k[b-e-]	*k[b-e-]
*M3/4	*M3/4
2.r	2d\
.	8d\L
.	8c\J
=2	=2
*M2/4	*M2/4
2r	4B-\
.	8B-\L
.	8G\J
=3	=3
*M5/8	*M5/8
3...r	2B-\
.	8r
=4	=4
*M2/4	*M2/4
2r	16B-\LL
.	16G\J
.	8G\J
.	16B-\LK
.	8.B-\J
=5	=5
2r	2G\
=6	=6
2r	8D\L
.	[8D\J
.	8D\]
.	8r
=7	=7
2r	16G\LL
.	16G\J
.	8G\J
.	16B-\LK
.	8.B-\J
=8	=8
2r	2G\
=9	=9
4GG/	8D\L
.	[8D\J
4GG/	8D\]
.	8r
=10	=10
*M3/4	*M3/4
4GG/	16G\LL
.	16G\J
.	8G\J
4GG/	4G\
4GG/	8.G\L
.	16D\Jk
=11	=11
4GG/	4G\
4GG/	4..G\
4GG/	.
.	16G\
=12	=12
*M2/4	*M2/4
4GG/	4G\
4GG/	4r
=13	=13
*M3/4	*M3/4
2.r	16d\LL
.	16d\J
.	8d\J
.	4d\
.	8d\L
.	8c\J
=14	=14
*M2/4	*M2/4
2r	4B-\
.	8B-\L
.	8G\J
=15	=15
*M5/8	*M5/8
3...r	2B-\
.	8r
=16	=16
*M3/4	*M3/4
2.r	16d\LL
.	16d\J
.	8d\J
.	4d\
.	8d\L
.	8c\J
=17	=17
*M2/4	*M2/4
2r	4B-\
.	8B-\L
.	8G\J
=18	=18
*M5/8	*M5/8
3...r	2B-\
.	8r
=19	=19
*M2/4	*M2/4
4GG/	16G\LL
.	16G\J
.	8G\J
4GG/	16B-\LK
.	8.B-\J
=20	=20
4GG/	2G\
4GG/	.
=21	=21
*M3/4	*M3/4
4GG/	8D\L
.	[8D\J
4GG/	4D\]
4GG/	4r
=22	=22
*M2/4	*M2/4
4GG/	16G\LL
.	16G\J
.	8G\J
4GG/	16B-\LK
.	8.B-\J
=23	=23
4GG/	2G\
4GG/	.
=24	=24
4GG/	8D\L
.	8D\J
4GG/	8D\
.	8r
=25	=25
4GG/	4r
4GG/	8G\L
.	8G\J
=26	=26
4GG/	[4G\
4GG/	8.G\L]
.	16D\Jk
=27	=27
4GG/	2G\
4GG/	.
=28	=28
4GG/	4G\
4r	4r
==	==
*-	*-
